X:344060
T:The Fairy Dance
H: 
B: https://thesession.org/tunes/424 / Gow Original Collection
C:Traditional (Unknown, pre 1930)
O:Kevin Fraser
Z:Kevin Fraser
Q:1/4=90
K:HP
M:2/2
L:1/8
R:Reel 
U: R = ///
U: r = //
U: V = !accent!
V:M gstem=up stem=down name="Melody"
V:0 gstem=up stem=down name="Simplified Melody" sname="simplified"
V:H gstem=up stem=down name="Harmony"
V:C gstem=up stem=down name="C-Harmony"
V:S gstem=up stem=down dyn=up stafflines=1 clef=perc middle=G name="Snare" sname="Snare"
V:B gstem=up stem=down clef=none dyn=up name="Bass"
V:T gstem=up stem=down clef=none dyn=up name="Tenor"
V:BB gstem=up stem=down name="Brass Bass" sname="ABCD-C" transpose=-1  octave=-1 clef=bass
V:BC gstem=up stem=down name="Brass Chord" sname="ABCD-D" transpose=-1
V:BD gstem=up stem=down name="Brass Chord 2" sname="ABCD-B" transpose=-1
I:MIDI=program 110
%%MIDI gracedivider 4
V:M gstem=up stem=down name="Melody"
%%MIDI program 109 #bagpipes
%%MIDI vol 100
%%score M BC BD BB 
% %score 0 M 
% %score 0 
V:M
|:f2fd f2fd|f2fd cdeg|f2fd gfed|cABc defg:|
|:a2af b2bf|g2ge a2ag|f2fd gfed|1 cABc defg:|2 cABc d3||
[K: Dmaj]
g|~f2dg ~f2dg|~f2dB cdeg|~f2df gfed|cABc dfag|
fAdg fAdg|fAdB cdeg|(3fga df gfed|cABc d2~f2|
aAdf bagf|(3gfe ce aeAg|fdBd gfed|cABc d2~f2|
a2 (3fga bagf|(3gfe ce Aceg|fdBd gfed|cA (3GFE D4||
g|:fAdg fAdg|fAde cdeg|fAdf gfed|1 cABc d4:|2 cAbc defg||
a2 ag b>bba|geee aaag|fadf gfed|1 cABc defg:|2 cAbc d4||
a2af b4|g2ge a3a|ffff gggg|edef d4|
aaaf bb2b|ggge A4|f2f2 g2g2|edef d4||
a2aa fdfa|fdfa age2|a2aa fdfa|1 agec defg:|2 agec dcde||
f2f2 dBB2|g2gg eccc|a2aa fdfa|1 agec dcde:|2 agec d4||
|:f2fd f2fd|f2fd cdeg|f2fd gfed|1 cABc d2 d2:|2 cABc defg||
|:a3f g3a|gfge a3ag|f2fd gfed|1 cABc defg:|2 cABc d3||
[K: Amaj]
|He|:{e}([Ac]ecA)|([Ac]ecA)|([Ac]ecA)|GBBB
[A2c2] c[Ae]|(dcBA)|(GEFG)|1 A2 A>A:|
[2 A2 A>e|:([A2(e2]e)c)|([A2(e2]e)c)|([(d2]d)B)
[e2A2] ed|[A2(c2] c)e|(dcBA)|(GEFG)|1 (A2A)>e:|
[2 [D2A2] [D2A2]||
[K: Dmaj]
f2fd effd|effd cdeg|fefa gfed|cABc defg:|
|:a2af fbba|gfge eaag|fefa gfed|1 cABc defg:|2 cABc d2dA||
|:(3DAf (3fAD (3DAf (3fAD|(3DAf (3fAD (3DBg (3gBD|(3DAf (3fAD gfed|1 cABc d2dA:|2 cABc def^g||
|:a^gfe ^dfba|=gfe=d ceag O|fed=c Bged|1 ^cABc def^g:|2 ^cABc d2de||
O ffz2 ggz2|c'c'z2 d'4||

